X:1
T:McGuffum's -- Reel
R:reel
B:Ryan's Mammoth Collection
N:187
Z:Contributed by Ray Davies,  ray:davies99.freeserve.co.uk
M:2/4
L:1/16
K:G
ud2|\
(BG).G2 Bcdg | BGgB aAAc | (BG).G2 Bcde | dega (bg).g2 |
(BG).G2 Bcdg | BGgB aAAc | (BG).G2 Bcde | dega (bg).g2 :|
|:a2|\
bgfg (eg)(dg) | cgBg aAAa | bgfg egdg | efga bgga |
bgfg (eg)(dg) | cgBg aAAc | BGcA dBge | dBcA (BG).G2 :|
